contributed-vectors/empik.svg

<?xml version="1.0" encoding="UTF-8" standalone="no"?>
<svg
   xmlns:dc="http://purl.org/dc/elements/1.1/"
   xmlns:cc="http://creativecommons.org/ns#"
   xmlns:rdf="http://www.w3.org/1999/02/22-rdf-syntax-ns#"
   xmlns:svg="http://www.w3.org/2000/svg"
   xmlns="http://www.w3.org/2000/svg"
   xmlns:sodipodi="http://sodipodi.sourceforge.net/DTD/sodipodi-0.dtd"
   xmlns:inkscape="http://www.inkscape.org/namespaces/inkscape"
   width="100%"
   height="100%"
   viewBox="0 0 192 192"
   version="1.1"
   xml:space="preserve"
   style="fill-rule:evenodd;clip-rule:evenodd;stroke-linejoin:round;stroke-miterlimit:2;"
   id="svg11"
   sodipodi:docname="empik.svg"
   inkscape:version="1.0.1 (3bc2e813f5, 2020-09-07)"
   inkscape:export-filename="/home/jphilippe/github/delta/android/contributed-vectors/empik.png"
   inkscape:export-xdpi="96"
   inkscape:export-ydpi="96"><metadata
   id="metadata17"><rdf:RDF><cc:Work
       rdf:about=""><dc:format>image/svg+xml</dc:format><dc:type
         rdf:resource="http://purl.org/dc/dcmitype/StillImage" /></cc:Work></rdf:RDF></metadata><defs
   id="defs15" /><sodipodi:namedview
   pagecolor="#ffffff"
   bordercolor="#666666"
   borderopacity="1"
   objecttolerance="10"
   gridtolerance="10"
   guidetolerance="10"
   inkscape:pageopacity="0"
   inkscape:pageshadow="2"
   inkscape:window-width="1884"
   inkscape:window-height="1052"
   id="namedview13"
   showgrid="false"
   inkscape:zoom="3.3697917"
   inkscape:cx="96"
   inkscape:cy="96"
   inkscape:window-x="36"
   inkscape:window-y="0"
   inkscape:window-maximized="1"
   inkscape:current-layer="svg11" />
    <g
   transform="translate(8,8)"
   id="g4">
            <path
   d="m 164.5,21.5 c 0,-5.519 -4.481,-10 -10,-10 h -133 c -5.519,0 -10,4.481 -10,10 v 133 c 0,5.519 4.481,10 10,10 h 133 c 5.519,0 10,-4.481 10,-10 z"
   style="fill:#ffffff"
   id="path2" />
        </g><g
   transform="matrix(0.78327,0,0,0.78327,20.8902,21.7464)"
   id="g8"
   style="fill:#585b5d;fill-opacity:1">
            <path
   d="m 122.017,92.66 c 0,15.35 -5.329,33.508 -28.101,54.262 L 79.689,132.695 c 0,0 16.699,-15.585 16.699,-27.682 H 70.759 V 53.756 h 51.258 z"
   style="fill:#585b5d;fill-opacity:1"
   id="path6" />
        </g>
</svg>

<?xml version="1.0" encoding="UTF-8" standalone="no"?>
<!DOCTYPE svg PUBLIC "-//W3C//DTD SVG 1.1//EN" "http://www.w3.org/Graphics/SVG/1.1/DTD/svg11.dtd">
<svg width="100%" height="100%" viewBox="0 0 192 192" version="1.1" xmlns="http://www.w3.org/2000/svg" xmlns:xlink="http://www.w3.org/1999/xlink" xml:space="preserve" xmlns:serif="http://www.serif.com/" style="fill-rule:evenodd;clip-rule:evenodd;stroke-linejoin:round;stroke-miterlimit:2;">
    <g id="Layer1">
        <g transform="matrix(1,0,0,1,8,8)">
            <path d="M164.5,21.5C164.5,15.981 160.019,11.5 154.5,11.5L21.5,11.5C15.981,11.5 11.5,15.981 11.5,21.5L11.5,154.5C11.5,160.019 15.981,164.5 21.5,164.5L154.5,164.5C160.019,164.5 164.5,160.019 164.5,154.5L164.5,21.5Z" style="fill:white;"/>
        </g>
        <g transform="matrix(0.78327,0,0,0.78327,20.8902,21.7464)">
            <path d="M122.017,92.66C122.017,108.01 116.688,126.168 93.916,146.922L79.689,132.695C79.689,132.695 96.388,117.11 96.388,105.013L70.759,105.013L70.759,53.756L122.017,53.756L122.017,92.66Z" style="fill:rgb(74,74,74);"/>
        </g>
    </g>
</svg>
